X:1051
T:A Dance.
M:6/8
L:1/8
Q:3/8=116
I: :: ::
Z:Jack Campin * www.campin.me.uk * 2009
K:C
gec c2c|Bcd  G2G|A2A f2e|dec dBG|
gec c2c|dBG  G2F|EGc fdB|c6    :|
efg a2a|def  g3 |A2A f2e|dec B2G|
efg a2a|b2b Hc'3|egc f2e|dcB c3:|
<end>
<start>
